!!!COM: Bach, Johann Sebastian
!!!OTL: Ach wie nichtig, ach wie fluechtig
!!!ONM: No. 48
!!!OCL: Erk
!!!YOE: Riemenschneider, Albert
!!!OPR: 371 Harmonized Chorales and 69 Chorale Melodies with Figured Bass
!!!OPT: Bach Chorale Harmonizations
**kern	**kern	**kern	**kern
! bass	! tenor	! alto	! soprano
*M4/4	*M4/4	*M4/4	*M4/4
*a:	*a:	*a:	*a:
=1	=1	=1	=1
4A	4c	4e	4a
4G#	4B	4e	4b
4A	4A	4e	4cc
4AA;	4A;	4e;	4cc;
=2	=2	=2	=2
4A	4A	4e	4cc
4G	4B	4g	4dd
4c	4c	4g	4ee
4C;	4c;	4g;	4ee;
=3	=3	=3	=3
8c	8c	4g	4ee
8B	8d	.	.
8A	8c	[4cc	4ee
8G	8B	.	.
8F#	8A	8cc]	4dd
8G#	8B	[8b	.
4A	8c	8b]	4cc
.	8e	8a	.
=4	=4	=4	=4
4D	4f	4a	[4b
4E	8e	4g#	8b]
.	8d	.	8a
2AA;	2c#;	2e;	2a;
=5	=5	=5	=5
8A	8c#	4a	4ee
8B	8d	.	.
8c#	8e	4a	4ee
8A	8c#	.	.
8d	4d	4a	4ff
8cn	.	.	.
8B-	4d	4b-	4ff
8A	.	.	.
=6	=6	=6	=6
8G	4d	4b-	4ee
8E	.	.	.
4A	4c#	8a	4ee
.	.	8g	.
4D	4A	8a	4ee
.	.	8e	.
4D;	4A;	4f#;	4dd;
=7	=7	=7	=7
8G	8B	4g	4dd
8A	8c	.	.
8B	8d	4g	4dd
8G	8B	.	.
8c	4c	4g	4ee
8B	.	.	.
8A	4c	4a	4ee
8G	.	.	.
=8	=8	=8	=8
8F	4c	4a	4dd
8D	.	.	.
4G	4B	8g	4dd
.	.	8f	.
4C	4c	8f	4cc
.	.	8d	.
4C;	4C;	4e;	4cc;
=9	=9	=9	=9
4F	4A	4f	4cc
8E	4A	4f	4dd
8D	.	.	.
8G#	4B	4e	4ee
8E	.	.	.
4A	4A	4e	8dd
.	.	.	8cc
=10	=10	=10	=10
4D#	4A	4f#	4b
4E	4G#	8e	4b
.	.	8d	.
4A	4A	8d	4a
.	.	8B	.
4AA;	4E;	4c#;	4a;
==	==	==	==
*-	*-	*-	*-
!!!CDT: 1685/3//-1750/7/28
!!!OCY: Deutschland
!!!AGN: chorale
!!!AST: Baroque
!!!AIN: vox
!!!YOY: 1941
!!!PPP: New York; London
!!!PPR: G. Schirmer
!!!ENC: David Huron
!!!EED: David Huron
!!!YEN: United States of America
!!!YER: 1992
!!!YEC: Copyright 1992 David Huron
!!!YEM: Rights to all derivative electronic formats reserved.
!!!YER: March 20, 1996
!!!AMT: simple quadruple
!!!EEV: 1.1
